X:1
T:Title
%%score { ( 1 3 ) | ( 2 4 ) }
L:1/8
Q:1/4=110
M:4/4
K:D
V:1 treble nm="Grand Piano"
V:3 treble 
V:2 bass 
V:4 bass 
V:1
 F2 D2 [FA]2 [DF]2 | [Gd]2 (3[Bd][Ac][GB] [FA]2 [DF]2 | [EG]2 [A,E]2 [FA]2 F2 | E2 (3EF^G [CA]4 | %4
w: D.~D.~Ford * * *||||
 [A,DF]2 [F,A,D]2 [DFA]2 [=CDF]2 | [B,DB]2 (3[D^GB][CEGc][FGd] d2 c2 | %6
w: ||
 d2 (3[Bd][Ac][GB] [FA]2 [=Fd]2 | [DF]2 (3[CA][CG][CE] D4 | [CE]2 (3[EG][DF][CE] [DF]2 [FA]2 | %9
w: |||
 B2 (3dcB [FA]2 F2 | E2 (3[EG][DF][CE] F2 AB | c2 (3BcB [CA]4 | [DF]2 [A,D]2 [FA]2 [DF]2 | %13
w: ||||
 [DB]2 (3[^GB][Gc][FGd] d2 c2 | d2 (3[Bd][Ac][GB] [FA]2 [=Fd]2 | %15
w: ||
[M:8/4] [DF]2 (3[CA][CG][CE] D4 z8 |] %16
w: |
V:2
 [D,A,D]2 [D,F,A,]2 [D,D]2 [D,A,]2 | [D,B,]2 (3[D,B,][D,C][D,D] [D,D]2 [D,A,]2 | %2
 [C,A,]2 [C,G,]2 [D,F,]2 [D,A,D]2 | [E,A,C]2 (3[E,^G,D][E,A,D][E,B,D] z2 =G,2 | D,2 D,2 D,2 D,2 | %5
 G,2 (3E,E,[E,B,][K:treble] [A,EG]2 [^A,EG]2 | %6
 [B,DF]2 (3[G,B,][G,C][K:bass][G,D] [D,D]2 [^A,,^G,]2 | [A,,A,]2 (3[A,,E,][A,,A,][A,,G,] [D,F,]4 | %8
 [A,,A,]2 (3[A,,A,][A,,A,][A,,A,] [D,A,]2 [D,D]2 | %9
 [G,DG]2 (3[G,B,G][G,CG][G,DG][K:bass] [D,D]2 [D,A,D]2 | %10
 [C,A,]2 (3[A,,A,][A,,A,][A,,A,] [D,A,D]2 [F,A,C][F,A,^D] | %11
 [E,A,E]2 (3[E,^G,D][E,F,E][E,G,D] [A,,A,]4 | [D,A,]2 [D,F,]2 [D,D]2 [D,=C]2 | %13
 [G,B,]2 (3[E,D][E,CE][E,B,][K:treble] [A,EG]2 [^A,EG]2 | %14
 [B,DF]2 (3[G,B,][G,C][K:bass][G,D] [D,D]2 [^A,,^G,]2 | %15
[M:8/4] [A,,A,]2 (3[A,,E,][A,,A,][A,,G,] [D,F,]4 z8 |] %16
V:3
 x8 | x8 | x8 | z4 A,2 z2 | x8 | x8 | x8 | x8 | x8 | x8 | x8 | x8 | x8 | x8 | x8 |[M:8/4] x16 |] %16
V:4
 x8 | x8 | x8 | z4 A,,4 | x8 | x4[K:treble] x4 | x10/3[K:bass] x14/3 | x8 | x8 | x4[K:bass] x4 | %10
 x8 | x8 | x8 | x4[K:treble] x4 | x10/3[K:bass] x14/3 |[M:8/4] x16 |] %16

